build-source/logos/fip.default.svg

<?xml version="1.0" encoding="UTF-8" standalone="no"?>
<!-- Created with Inkscape (http://www.inkscape.org/) -->
<svg
   xmlns:svg="http://www.w3.org/2000/svg"
   xmlns="http://www.w3.org/2000/svg"
   version="1.0"
   width="602.36218"
   height="602.36218"
   id="svg2407">
  <defs
     id="defs2409" />
  <g
     id="g7110">
    <g
       id="g7175">
      <path
         d="M 17.716527,584.6513 L 493.20539,584.6513 L 493.20539,109.16248 L 17.716527,109.16248 L 17.716527,584.6513 z"
         id="path5844"
         style="fill:#000000;fill-opacity:1;fill-rule:nonzero;stroke:none" />
      <path
         d="M 109.18842,462.06895 L 88.069273,463.78131 L 88.64006,505.44881 C 88.64006,505.44881 113.78899,506.78432 119.74799,507.16117 C 125.68429,507.52647 131.83723,507.6863 133.73228,514.8668 C 135.78724,522.65223 126.84856,528.28028 123.7435,528.28031 C 133.12713,528.28031 130.96959,528.28029 138.01319,528.28031 C 143.74391,527.22994 150.2508,520.28929 149.42894,510.01511 C 148.34446,496.43024 137.97892,493.17685 126.88283,493.17687 L 130.38998,470.98459 L 109.18842,462.06895 z M 59.529891,501.45329 C 55.728326,506.05386 51.927,513.26849 54.107408,521.14547 C 60.625803,543.15516 95.580838,552.81276 110.32999,553.39497 L 108.61763,527.70952 C 108.61764,527.70953 84.758704,530.70045 72.658007,518.00613 C 67.532334,512.65202 68.514207,507.19553 72.372613,502.30947 C 67.852075,502.11539 62.566372,501.57887 59.529891,501.45329 z"
         id="path5846"
         style="fill:#ffffff;fill-opacity:1;fill-rule:nonzero;stroke:none" />
      <path
         d="M 109.15683,493.1997 L 584.64566,493.1997 L 584.64566,17.71088 L 109.15683,17.71088 L 109.15683,493.1997 z"
         id="path5850"
         style="fill:#ed0180;fill-opacity:1;fill-rule:nonzero;stroke:none" />
      <path
         d="M 208.9375,241.59375 C 194.70095,241.59375 179.43713,247.13555 171.28125,259.21875 C 164.68737,269.23789 165.21875,283.17779 165.21875,294.78125 L 149.65625,294.78125 L 149.65625,324.78125 L 165.21875,324.78125 L 165.21875,425.125 L 203.90625,425.125 L 203.90625,324.8125 L 227.625,324.8125 L 227.625,294.78125 L 203.90625,294.78125 L 203.90625,291.875 C 203.90625,280.53931 203.90795,272.40625 216.28125,272.40625 C 222.37306,272.40625 225.25183,272.39535 231.03125,273.1875 L 231.03125,243.4375 C 222.88652,241.85319 212.09497,241.59375 208.9375,241.59375 z M 245.8125,241.84375 L 245.8125,279.21875 L 284.53125,279.21875 L 284.53125,241.84375 L 245.8125,241.84375 z M 373.5625,288.71875 C 356.44741,288.71875 345.88838,296.36628 338.78125,311.09375 L 338.25,311.09375 L 338.25,291.34375 L 301.90625,291.34375 L 301.90625,470.125 L 340.625,470.125 L 340.625,410.34375 L 341.125,410.34375 C 346.65896,422.21498 358.79213,427.71876 371.96875,427.71875 C 410.96305,427.71875 423.06251,391.4248 423.0625,358.5 C 423.0625,342.17707 421.4973,326.10039 413.0625,311.875 C 404.13676,296.61199 391.44743,288.71875 373.5625,288.71875 z M 245.8125,291.34375 L 245.8125,425.125 L 284.53125,425.125 L 284.53125,291.34375 L 245.8125,291.34375 z M 362,316.125 C 381.4581,316.125 382.53124,343.7365 382.53125,357.4375 C 382.53125,371.12734 381.74587,400.34376 361.71875,400.34375 C 354.84593,400.34375 348.02561,396.17674 344.34375,390.375 C 339.85857,382.98896 340.62499,371.67587 340.625,363.21875 L 340.625,350.0625 C 340.625,342.16322 340.61287,334.01335 344.5625,326.90625 C 348.01007,320.30121 354.33503,316.12499 362,316.125 z"
         id="path360"
         style="fill:#ffffff" />
    </g>
  </g>
</svg>

<svg xmlns="http://www.w3.org/2000/svg" viewBox="0 0 602.36 602.36"><path d="m17.717 584.65h475.49v-475.49h-475.49v475.49"/><path d="m109.19 462.07l-21.12 1.712.571 41.667c0 0 25.15 1.336 31.11 1.712 5.936.365 12.09.525 13.984 7.706 2.055 7.785-6.884 13.413-9.989 13.414 9.384 0 7.226 0 14.27 0 5.731-1.05 12.238-7.991 11.416-18.265-1.084-13.585-11.45-16.838-22.546-16.838l3.507-22.19-21.2-8.916m-49.659 39.38c-3.802 4.601-7.603 11.815-5.422 19.692 6.518 22.01 41.473 31.667 56.22 32.25l-1.712-25.685c0 0-23.859 2.991-35.96-9.703-5.126-5.354-4.144-10.811-.285-15.697-4.521-.194-9.806-.731-12.843-.856" fill="#fff"/><path d="m109.16 493.2h475.49v-475.49h-475.49v475.49" fill="#ed0180"/><path d="m208.94 241.59c-14.237 0-29.5 5.542-37.656 17.625-6.594 10.02-6.06 23.959-6.06 35.563h-15.563v30h15.563v100.34h38.688v-100.31h23.719v-30.03h-23.719v-2.906c0-11.336.002-19.469 12.375-19.469 6.092 0 8.971-.011 14.75.781v-29.75c-8.145-1.584-18.936-1.844-22.09-1.844m36.875.25v37.37h38.719v-37.37h-38.719m127.75 46.875c-17.12 0-27.674 7.648-34.781 22.375h-.531v-19.75h-36.34v178.78h38.719v-59.781h.5c5.534 11.871 17.667 17.375 30.844 17.375 38.994 0 51.09-36.29 51.09-69.22 0-16.323-1.565-32.4-10-46.625-8.926-15.263-21.615-23.16-39.5-23.16m-127.75 2.625v133.78h38.719v-133.78h-38.719m116.19 24.781c19.458 0 20.531 27.611 20.531 41.31 0 13.69-.785 42.906-20.813 42.906-6.873 0-13.693-4.167-17.375-9.969-4.485-7.386-3.719-18.699-3.719-27.16v-13.156c0-7.899-.012-16.05 3.938-23.16 3.448-6.605 9.773-10.781 17.438-10.781" fill="#fff"/></svg>
